svgs/sharp-light/car-garage.svg

<svg xmlns="http://www.w3.org/2000/svg" viewBox="0 0 640 512"><!--! Font Awesome Pro 6.6.0 by @fontawesome - https://fontawesome.com License - https://fontawesome.com/license (Commercial License) Copyright 2024 Fonticons, Inc. --><path d="M328.5 10.5L320 5.1l-8.5 5.4-304 192 17.1 27.1L320 42.9 615.5 229.5l17.1-27.1-304-192zM203.9 176l-3.3 11.6L171.9 288 160 288l-32 0 0 32 0 96 0 16 0 32 0 48 32 0 0-48 320 0 0 48 32 0 0-48 0-32 0-16 0-96 0-32-32 0-11.9 0L439.4 187.6 436.1 176 424 176l-208 0-12.1 0zM480 320l0 96 0 16-320 0 0-16 0-96 320 0zM411.9 208l22.9 80-229.6 0 22.9-80 183.9 0zM208 400a24 24 0 1 0 0-48 24 24 0 1 0 0 48zm248-24a24 24 0 1 0 -48 0 24 24 0 1 0 48 0z"/></svg>

<svg xmlns="http://www.w3.org/2000/svg" viewBox="0 0 640 512"><!--! Font Awesome Pro 6.4.0 by @fontawesome - https://fontawesome.com License - https://fontawesome.com/license (Commercial License) Copyright 2023 Fonticons, Inc. --><path d="M328.5 10.5L320 5.1l-8.5 5.4-304 192 17.1 27.1L320 42.9 615.5 229.5l17.1-27.1-304-192zM203.9 176l-3.3 11.6L171.9 288H160 128v32 96 16 32 48h32V464H480v48h32V464 432 416 320 288H480 468.1L439.4 187.6 436.1 176H424 216 203.9zM480 320v96 16H160V416 320H480zM411.9 208l22.9 80H205.2l22.9-80H411.9zM208 400a24 24 0 1 0 0-48 24 24 0 1 0 0 48zm248-24a24 24 0 1 0 -48 0 24 24 0 1 0 48 0z"/></svg>
